X:1
T:Sister Jenny's Turn To Throw The Bomb
M:6/8
L:1/8
K:G
 B2 B| E E2 E2- F| G E4 F| G2 E F2 D| E3 z2 E| A2 A A2 B| c A4 B| c2 A B2 c|\
 B3- B2 B| B2 B B2 A| G E4 E| F2 F B2 B| E3 B,2 B,| E E2 E2 F| G E4 F|\
 G2 E F2 D| E3 B2 B| E2 E E2 F| G2 E F2 D| E6-| E3 z2| E| A2 A A2 B|\
 c2 AB c2| B6-| B3 z2 B| B B2 B2 A| G- E2 z EE| F2 F B2 B| E3 B2 B|\
 E2 E E2 F| G2 E F2 D| E6-| E3||
